packages/calcite-ui-icons/icons/intersection-16.svg

<?xml version="1.0" encoding="UTF-8"?><svg id="icons" xmlns="http://www.w3.org/2000/svg" viewBox="0 0 16 16"><defs><style>.cls-1{fill:none;}</style></defs><path d="M14.99902,1.00067l-2.99902-.00067.00098,2.99933,2.99902.00067-.00098-2.99933ZM13,3v-1h1v1h-1ZM1,2h6v1H1v-1ZM10,3h1v-1h-1v1ZM8,3h1v-1h-1v1ZM13,15h1v-6h-1v6ZM13,5v1h1v-1h-1ZM13,8h1v-1h-1v1Z"/><rect class="cls-1" width="16" height="16" transform="translate(0 16) rotate(-90)"/></svg>

<svg xmlns="http://www.w3.org/2000/svg" viewBox="0 0 16 16"><path d="M14.999 1H12l.001 3H15zM13 3V2h1v1zM1 2h6v1H1zm9 1h1V2h-1zM8 3h1V2H8zm5 12h1V9h-1zm0-10v1h1V5zm0 3h1V7h-1z"/><path d="M0 0h16v16H0z" style="fill:none" transform="rotate(-90 8 8)"/></svg>
